source/manual/Azure Log Analytics_COLOR.svg

<svg viewBox="0 0 50 50" class="fxs-portal-svg" role="presentation" focusable="false" xmlns:svg="http://www.w3.org/2000/svg" xmlns:xlink="http://www.w3.org/1999/xlink" id="FxSymbol0-0e3"><g><title></title><path fill-rule="evenodd" clip-rule="evenodd" d="M1 26h10v10H1zm0-13h10v10H1zm0 26h10v10H1zm13 0h10v10H14zm13 0h10v10H27z" class="msportalfx-svg-c03" fill="#a0a1a2"></path><path fill-rule="evenodd" clip-rule="evenodd" d="M31.5 1C21.705 1 14 8.705 14 18.5V36h17.5C41.295 36 49 28.295 49 18.5S41.295 1 31.5 1z" class="msportalfx-svg-c19" fill="#0072c6"></path><path fill-rule="evenodd" clip-rule="evenodd" d="M21 16h3v11h-3V16zm7 3h3v8h-3v-8zm7-7h3v15h-3V12z" class="msportalfx-svg-c01" fill="#ffffff"></path></g></svg>

<?xml version="1.0" encoding="UTF-8" standalone="no"?>
<svg
   xmlns:dc="http://purl.org/dc/elements/1.1/"
   xmlns:cc="http://creativecommons.org/ns#"
   xmlns:rdf="http://www.w3.org/1999/02/22-rdf-syntax-ns#"
   xmlns:svg="http://www.w3.org/2000/svg"
   xmlns="http://www.w3.org/2000/svg"
   xmlns:sodipodi="http://sodipodi.sourceforge.net/DTD/sodipodi-0.dtd"
   xmlns:inkscape="http://www.inkscape.org/namespaces/inkscape"
   viewBox="0 0 48 48"
   class="fxs-portal-svg"
   role="presentation"
   focusable="false"
   id="FxSymbol0-0e3"
   version="1.1"
   sodipodi:docname="Azure Log Analytics_COLOR.svg"
   width="48"
   height="48"
   inkscape:version="0.92.2 (5c3e80d, 2017-08-06)">
  <metadata
     id="metadata17">
    <rdf:RDF>
      <cc:Work
         rdf:about="">
        <dc:format>image/svg+xml</dc:format>
        <dc:type
           rdf:resource="http://purl.org/dc/dcmitype/StillImage" />
      </cc:Work>
    </rdf:RDF>
  </metadata>
  <defs
     id="defs15" />
  <sodipodi:namedview
     pagecolor="#ffffff"
     bordercolor="#666666"
     borderopacity="1"
     objecttolerance="10"
     gridtolerance="10"
     guidetolerance="10"
     inkscape:pageopacity="0"
     inkscape:pageshadow="2"
     inkscape:window-width="640"
     inkscape:window-height="480"
     id="namedview13"
     showgrid="false"
     inkscape:zoom="4.72"
     inkscape:cx="24"
     inkscape:cy="24"
     inkscape:window-x="0"
     inkscape:window-y="0"
     inkscape:window-maximized="0"
     inkscape:current-layer="FxSymbol0-0e3" />
  <g
     id="g10"
     transform="translate(-1,-1)">
    <title
       id="title2" />
    <path
       d="M 1,26 H 11 V 36 H 1 Z M 1,13 H 11 V 23 H 1 Z M 1,39 H 11 V 49 H 1 Z m 13,0 H 24 V 49 H 14 Z m 13,0 H 37 V 49 H 27 Z"
       class="msportalfx-svg-c03"
       id="path4"
       inkscape:connector-curvature="0"
       style="clip-rule:evenodd;fill:#a0a1a2;fill-rule:evenodd" />
    <path
       d="M 31.5,1 C 21.705,1 14,8.705 14,18.5 V 36 H 31.5 C 41.295,36 49,28.295 49,18.5 49,8.705 41.295,1 31.5,1 Z"
       class="msportalfx-svg-c19"
       id="path6"
       inkscape:connector-curvature="0"
       style="clip-rule:evenodd;fill:#0072c6;fill-rule:evenodd" />
    <path
       d="m 21,16 h 3 v 11 h -3 z m 7,3 h 3 v 8 h -3 z m 7,-7 h 3 v 15 h -3 z"
       class="msportalfx-svg-c01"
       id="path8"
       inkscape:connector-curvature="0"
       style="clip-rule:evenodd;fill:#ffffff;fill-rule:evenodd" />
  </g>
</svg>
